X: 21081
M: 2/4
L: 1/16
K: Bb
V: 1 name="1"
cAfd bagf | edcB AGFE | B,CDE GABA | B2B2 B2cd |\
cAfe dBgf | ecag fedc | dfed cBAG | F2F2"^D.C."F2 |]
c2 |\
d2c2 d2c2 | B4 F2GA | B2AB c2BA | d2cB c2de |\
f3gf2e2 | d3ed2c2 | B2dB F2GA | B2B2"^D.C."B2 |]


